svg/couple with heart woman man medium skin tone.svg

<svg width="128" height="128" xmlns="http://www.w3.org/2000/svg" xmlns:xlink="http://www.w3.org/1999/xlink"><defs><path id="a" d="M0 0h128v128H0z"/></defs><clipPath id="b"><use xlink:href="#a" overflow="visible"/></clipPath><path d="M-36.84 45.53s0 48.72 6.28 71.38c3.1 11.16 6.95 18.2 16.22 11.24l35.94-.36c9.25 7.06 15.88.29 17.87-11.17 4.71-27.07 4.71-71.09 4.71-71.09h-81.02z" clip-path="url(#b)" fill="#6d4c41"/><ellipse cx="3.79" cy="45.29" rx="40.51" ry="36.42" clip-path="url(#b)" fill="#6d4c41"/><path d="M20.24 101.86c-5.7-1.08-27.77-1.08-33.47 0-18.04 3.43-31.26 11.39-31.26 28.36v57.83l48 .01 48-.01v-57.83c-.01-16.97-13.23-24.93-31.27-28.36z" clip-path="url(#b)" fill="#651fff"/><path d="M139.81 101.86c-5.7-1.08-27.77-1.08-33.47 0-18.04 3.43-31.26 11.39-31.26 28.36v57.83l48 .01 48-.01v-57.83c0-16.97-13.23-24.93-31.27-28.36z" clip-path="url(#b)" fill="#00bfa5"/><path clip-path="url(#b)" fill="#bf8f68" d="M33.96 144.76h11.42v40.48H33.96z"/><path d="M4.02 114.14c-6.08 0-10.9-4.93-10.9-11.01v-9.5h21.8v9.5c0 6.08-4.82 11.01-10.9 11.01zM122.5 114.35c-6.08 0-10.5-4.93-10.5-11.01V93h21v10.34c0 6.08-4.42 11.01-10.5 11.01z" clip-path="url(#b)" fill="#99674f"/><g clip-path="url(#b)"><path d="M-4.15 63.79c0 2.91-1.94 5.26-4.35 5.26-2.41 0-4.36-2.36-4.36-5.26 0-2.91 1.96-5.27 4.36-5.27 2.41 0 4.35 2.36 4.35 5.27" fill="#444"/></g><path d="M3.79 17.65c-24.91 0-31.42 19.31-31.42 46.43s19.32 35.4 31.42 35.4c12.1 0 31.42-8.27 31.42-35.4S28.69 17.65 3.79 17.65z" clip-path="url(#b)" fill="#bf8f68"/><path d="M-6.96 65.19c0 2.91-1.95 5.27-4.36 5.27s-4.37-2.36-4.37-5.27c0-2.92 1.96-5.27 4.37-5.27 2.41-.01 4.36 2.35 4.36 5.27M14.53 65.19c0 2.91 1.95 5.27 4.37 5.27 2.41 0 4.36-2.36 4.36-5.27 0-2.92-1.96-5.27-4.36-5.27-2.42-.01-4.37 2.35-4.37 5.27" clip-path="url(#b)" fill="#444"/><path d="M13.29 38.92C9.98 42.1-6.47 56.93-29.14 60.8V30.41S-19.36 11 4.12 11s33.26 19.9 33.26 19.9v29.9S22 54.9 14.27 39.11a.615.615 0 0 0-.98-.19z" clip-path="url(#b)" fill="#6d4c41"/><path d="M13.23 82.98H3.79h-9.44c-1.08 0-1.55.73-.83 1.82 1 1.53 4.72 4.46 10.28 4.46s9.27-2.94 10.28-4.46c.7-1.09.23-1.82-.85-1.82z" clip-path="url(#b)" fill="#4c3734"/><path d="M8.35 75.54c-1.61.46-3.27.68-4.56.68S.83 76-.77 75.54c-.69-.19-.96.46-.71.89.51.9 2.56 2.71 5.27 2.71 2.71 0 4.76-1.81 5.27-2.71.25-.43-.02-1.09-.71-.89z" clip-path="url(#b)" fill="#99674f"/><g clip-path="url(#b)" fill="#99674f"><path d="M156.79 55.97s6.09 1.06 6.09 7.62c0 5.79-4.44 8.07-8.89 8.07V55.97h2.8zM90.15 55.97s-6.27 1.44-6.27 8.31c0 6.32 4.85 8.81 9.7 8.81V55.97h-3.43z"/></g><path d="M123.57 13c-26.25 0-33.13 20.35-33.13 48.94 0 29.65 19.06 37.31 33.13 37.31 13.86 0 33.13-7.45 33.13-37.31 0-28.59-6.88-48.94-33.13-48.94z" clip-path="url(#b)" fill="#bf8f68"/><path d="M133.06 81.69h-9.49-9.49c-1.09 0-1.56.73-.84 1.83 1.01 1.53 4.75 4.48 10.32 4.48 5.58 0 9.32-2.95 10.32-4.48.73-1.1.27-1.83-.82-1.83z" clip-path="url(#b)" fill="#4c3734"/><path d="M128.15 74.22c-1.61.46-3.29.68-4.58.68s-2.97-.22-4.58-.68c-.69-.2-.96.46-.71.89.51.9 2.57 2.72 5.3 2.72 2.72 0 4.79-1.82 5.3-2.72.23-.43-.04-1.09-.73-.89z" clip-path="url(#b)" fill="#99674f"/><path d="M112.77 63.82c0 2.92-1.96 5.29-4.38 5.29S104 66.74 104 63.82c0-2.93 1.97-5.3 4.39-5.3 2.43 0 4.38 2.37 4.38 5.3M134.36 63.82c0 2.92 1.96 5.29 4.39 5.29 2.42 0 4.38-2.37 4.38-5.29 0-2.93-1.97-5.3-4.38-5.3-2.43 0-4.39 2.37-4.39 5.3" clip-path="url(#b)" fill="#444"/><path d="M85.99 58.52s-.01-8.44-.01-19.93c0-12.01 8.81-29.44 38.27-29.44 20.56 0 28.25 8.94 28.25 14.36 0 0 7.64 1.37 8.39 11.15.53 6.87-.15 23.39-.15 23.39s-.83-.74-1.77-1.17c-.5-.23-1-.33-1-.33l-1.38 9.43-10.23-19.8a.309.309 0 0 0-.32-.17l-4.14.49a157.829 157.829 0 0 1-35.96.13l-5.59-.62a.332.332 0 0 0-.32.18l-9.44 19.72-1.43-9.6s-.98.39-1.87 1.08c-.85.66-1.3 1.13-1.3 1.13z" clip-path="url(#b)" fill="#6d4c41"/><g clip-path="url(#b)"><path d="M33.36 40.87c6.07 9.04 16.89 18.42 24.69 25.69.83.78 1.66 1.61 2.5 2.4.9.83 1.99 2.74 3.44 2.83 1.46-.09 2.54-1.99 3.44-2.83.85-.79 1.67-1.62 2.51-2.4 7.8-7.28 18.62-16.66 24.68-25.69 1.82-2.7 3.15-5.6 3.7-8.81.54-3.22.51-7.85-.8-10.91-3.11-7.25-8.4-11.4-15.67-11.36-.27.01-.53.01-.81.01-2.85.05-5.61.69-8.23 1.77-2.8 1.18-4.73 2.94-7.21 4.52-.94.6-2.28.59-3.22 0-2.49-1.58-4.41-3.35-7.21-4.52-2.62-1.09-5.38-1.73-8.23-1.77-.26-.01-.54-.01-.81-.02-7.28-.04-12.57 4.11-15.67 11.36-1.32 3.07-1.34 7.69-.8 10.91.55 3.22 1.9 6.12 3.7 8.82z" fill="#f06292"/></g></svg>

<?xml version="1.0" encoding="UTF-8" standalone="no"?><!DOCTYPE svg PUBLIC "-//W3C//DTD SVG 1.1//EN" "http://www.w3.org/Graphics/SVG/1.1/DTD/svg11.dtd"><svg width="100%" height="100%" viewBox="0 0 534 534" version="1.1" xmlns="http://www.w3.org/2000/svg" xmlns:xlink="http://www.w3.org/1999/xlink" xml:space="preserve" xmlns:serif="http://www.serif.com/" style="fill-rule:evenodd;clip-rule:evenodd;stroke-linejoin:round;stroke-miterlimit:2;"><g transform="matrix(4.16667,0,0,4.16667,0,0)"><clipPath id="_clip1"><rect x="0" y="0" width="128" height="128"/></clipPath><g clip-path="url(#_clip1)"><path d="M-36.84,45.53C-36.84,45.53 -36.84,94.25 -30.56,116.91C-27.46,128.07 -23.61,135.11 -14.34,128.15L21.6,127.79C30.85,134.85 37.48,128.08 39.47,116.62C44.18,89.55 44.18,45.53 44.18,45.53L-36.84,45.53Z" style="fill:#6d4c41;fill-rule:nonzero;"/></g><clipPath id="_clip2"><rect x="0" y="0" width="128" height="128"/></clipPath><g clip-path="url(#_clip2)"><ellipse cx="3.79" cy="45.29" rx="40.51" ry="36.42" style="fill:#6d4c41;"/></g><clipPath id="_clip3"><rect x="0" y="0" width="128" height="128"/></clipPath><g clip-path="url(#_clip3)"><path d="M20.24,101.86C14.54,100.78 -7.53,100.78 -13.23,101.86C-31.27,105.29 -44.49,113.25 -44.49,130.22L-44.49,188.05L3.51,188.06L51.51,188.05L51.51,130.22C51.5,113.25 38.28,105.29 20.24,101.86Z" style="fill:#651fff;fill-rule:nonzero;"/></g><clipPath id="_clip4"><rect x="0" y="0" width="128" height="128"/></clipPath><g clip-path="url(#_clip4)"><path d="M139.81,101.86C134.11,100.78 112.04,100.78 106.34,101.86C88.3,105.29 75.08,113.25 75.08,130.22L75.08,188.05L123.08,188.06L171.08,188.05L171.08,130.22C171.08,113.25 157.85,105.29 139.81,101.86Z" style="fill:#00bfa5;fill-rule:nonzero;"/></g><clipPath id="_clip5"><rect x="0" y="0" width="128" height="128"/></clipPath><g clip-path="url(#_clip5)"><path d="M122.5,114.35C116.42,114.35 112,109.42 112,103.34L112,93L133,93L133,103.34C133,109.42 128.58,114.35 122.5,114.35Z" style="fill:#99674f;"/></g><clipPath id="_clip6"><rect x="0" y="0" width="128" height="128"/></clipPath><g clip-path="url(#_clip6)"><path d="M4.02,114.14C-2.06,114.14 -6.88,109.21 -6.88,103.13L-6.88,93.63L14.92,93.63L14.92,103.13C14.92,109.21 10.1,114.14 4.02,114.14Z" style="fill:#99674f;"/></g><clipPath id="_clip7"><rect x="0" y="0" width="128" height="128"/></clipPath><g clip-path="url(#_clip7)"><path d="M3.79,17.65C-21.12,17.65 -27.63,36.96 -27.63,64.08C-27.63,91.2 -8.31,99.48 3.79,99.48C15.89,99.48 35.21,91.21 35.21,64.08C35.21,36.95 28.69,17.65 3.79,17.65Z" style="fill:#bf8f68;fill-rule:nonzero;"/></g><clipPath id="_clip8"><rect x="0" y="0" width="128" height="128"/></clipPath><g clip-path="url(#_clip8)"><path d="M-6.96,65.19C-6.96,68.1 -8.91,70.46 -11.32,70.46C-13.73,70.46 -15.69,68.1 -15.69,65.19C-15.69,62.27 -13.73,59.92 -11.32,59.92C-8.91,59.91 -6.96,62.27 -6.96,65.19M14.53,65.19C14.53,68.1 16.48,70.46 18.9,70.46C21.31,70.46 23.26,68.1 23.26,65.19C23.26,62.27 21.3,59.92 18.9,59.92C16.48,59.91 14.53,62.27 14.53,65.19" style="fill:#444;fill-rule:nonzero;"/></g><clipPath id="_clip9"><rect x="0" y="0" width="128" height="128"/></clipPath><g clip-path="url(#_clip9)"><path d="M13.29,38.92C9.98,42.1 -6.47,56.93 -29.14,60.8L-29.14,30.41C-29.14,30.41 -19.36,11 4.12,11C27.6,11 37.38,30.9 37.38,30.9L37.38,60.8C37.38,60.8 22,54.9 14.27,39.11C14.17,38.893 13.951,38.753 13.712,38.753C13.555,38.753 13.404,38.813 13.29,38.92Z" style="fill:#6d4c41;fill-rule:nonzero;"/></g><clipPath id="_clip10"><rect x="0" y="0" width="128" height="128"/></clipPath><g clip-path="url(#_clip10)"><path d="M13.23,82.98L-5.65,82.98C-6.73,82.98 -7.2,83.71 -6.48,84.8C-5.48,86.33 -1.76,89.26 3.8,89.26C9.36,89.26 13.07,86.32 14.08,84.8C14.78,83.71 14.31,82.98 13.23,82.98Z" style="fill:#4c3734;fill-rule:nonzero;"/></g><clipPath id="_clip11"><rect x="0" y="0" width="128" height="128"/></clipPath><g clip-path="url(#_clip11)"><path d="M8.35,75.54C6.74,76 5.08,76.22 3.79,76.22C2.5,76.22 0.83,76 -0.77,75.54C-1.46,75.35 -1.73,76 -1.48,76.43C-0.97,77.33 1.08,79.14 3.79,79.14C6.5,79.14 8.55,77.33 9.06,76.43C9.31,76 9.04,75.34 8.35,75.54Z" style="fill:#99674f;fill-rule:nonzero;"/></g><g><clipPath id="_clip12"><rect x="0" y="0" width="128" height="128"/></clipPath><g clip-path="url(#_clip12)"><path d="M156.79,55.97C156.79,55.97 162.88,57.03 162.88,63.59C162.88,69.38 158.44,71.66 153.99,71.66L153.99,55.97L156.79,55.97ZM90.15,55.97C90.15,55.97 83.88,57.41 83.88,64.28C83.88,70.6 88.73,73.09 93.58,73.09L93.58,55.97L90.15,55.97Z" style="fill:#99674f;fill-rule:nonzero;"/></g></g><clipPath id="_clip13"><rect x="0" y="0" width="128" height="128"/></clipPath><g clip-path="url(#_clip13)"><path d="M123.57,13C97.32,13 90.44,33.35 90.44,61.94C90.44,91.59 109.5,99.25 123.57,99.25C137.43,99.25 156.7,91.8 156.7,61.94C156.7,33.35 149.82,13 123.57,13Z" style="fill:#bf8f68;fill-rule:nonzero;"/></g><clipPath id="_clip14"><rect x="0" y="0" width="128" height="128"/></clipPath><g clip-path="url(#_clip14)"><path d="M133.06,81.69L114.08,81.69C112.99,81.69 112.52,82.42 113.24,83.52C114.25,85.05 117.99,88 123.56,88C129.14,88 132.88,85.05 133.88,83.52C134.61,82.42 134.15,81.69 133.06,81.69Z" style="fill:#4c3734;fill-rule:nonzero;"/></g><clipPath id="_clip15"><rect x="0" y="0" width="128" height="128"/></clipPath><g clip-path="url(#_clip15)"><path d="M128.15,74.22C126.54,74.68 124.86,74.9 123.57,74.9C122.28,74.9 120.6,74.68 118.99,74.22C118.3,74.02 118.03,74.68 118.28,75.11C118.79,76.01 120.85,77.83 123.58,77.83C126.3,77.83 128.37,76.01 128.88,75.11C129.11,74.68 128.84,74.02 128.15,74.22Z" style="fill:#99674f;fill-rule:nonzero;"/></g><clipPath id="_clip16"><rect x="0" y="0" width="128" height="128"/></clipPath><g clip-path="url(#_clip16)"><path d="M112.77,63.82C112.77,66.74 110.81,69.11 108.39,69.11C105.97,69.11 104,66.74 104,63.82C104,60.89 105.97,58.52 108.39,58.52C110.82,58.52 112.77,60.89 112.77,63.82M134.36,63.82C134.36,66.74 136.32,69.11 138.75,69.11C141.17,69.11 143.13,66.74 143.13,63.82C143.13,60.89 141.16,58.52 138.75,58.52C136.32,58.52 134.36,60.89 134.36,63.82" style="fill:#444;fill-rule:nonzero;"/></g><clipPath id="_clip17"><rect x="0" y="0" width="128" height="128"/></clipPath><g clip-path="url(#_clip17)"><path d="M85.99,58.52C85.99,58.52 85.98,50.08 85.98,38.59C85.98,26.58 94.79,9.15 124.25,9.15C144.81,9.15 152.5,18.09 152.5,23.51C152.5,23.51 160.14,24.88 160.89,34.66C161.42,41.53 160.74,58.05 160.74,58.05C160.74,58.05 159.91,57.31 158.97,56.88C158.47,56.65 157.97,56.55 157.97,56.55L156.59,65.98L146.36,46.18C146.301,46.06 146.172,45.992 146.04,46.01L141.9,46.5C129.957,47.913 117.892,47.957 105.94,46.63L100.35,46.01C100.217,46 100.091,46.071 100.03,46.19L90.59,65.91L89.16,56.31C89.16,56.31 88.18,56.7 87.29,57.39C86.44,58.05 85.99,58.52 85.99,58.52Z" style="fill:#6d4c41;fill-rule:nonzero;"/></g><g><path d="M33.36,40.87C39.43,49.91 50.25,59.29 58.05,66.56C58.88,67.34 59.71,68.17 60.55,68.96C61.45,69.79 62.54,71.7 63.99,71.79C65.45,71.7 66.53,69.8 67.43,68.96C68.28,68.17 69.1,67.34 69.94,66.56C77.74,59.28 88.56,49.9 94.62,40.87C96.44,38.17 97.77,35.27 98.32,32.06C98.86,28.84 98.83,24.21 97.52,21.15C94.41,13.9 89.12,9.75 81.85,9.79C81.58,9.8 81.32,9.8 81.04,9.8C78.19,9.85 75.43,10.49 72.81,11.57C70.01,12.75 68.08,14.51 65.6,16.09C64.66,16.69 63.32,16.68 62.38,16.09C59.89,14.51 57.97,12.74 55.17,11.57C52.55,10.48 49.79,9.84 46.94,9.8C46.68,9.79 46.4,9.79 46.13,9.78C38.85,9.74 33.56,13.89 30.46,21.14C29.14,24.21 29.12,28.83 29.66,32.05C30.21,35.27 31.56,38.17 33.36,40.87Z" style="fill:#f06292;fill-rule:nonzero;"/></g></g></svg>
